icons/icn_rodillo.svg

<svg width="24" xmlns="http://www.w3.org/2000/svg" height="24" id="screenshot-a0ff4895-d5eb-80bb-8006-5946d3a93d7f" viewBox="0 0 24 24" xmlns:xlink="http://www.w3.org/1999/xlink" fill="none" version="1.1"><g id="shape-a0ff4895-d5eb-80bb-8006-5946d3a93d7f"><g class="frame-container-wrapper"><g class="frame-container-blur"><g class="frame-container-shadows"><g fill="none"><g class="fills" id="fills-a0ff4895-d5eb-80bb-8006-5946d3a93d7f"><rect rx="0" ry="0" x="0" y="0" width="24" height="24.000000000000455" transform="matrix(1, 0, 0, 1, 0, 0)" class="frame-background"/></g><g class="frame-children"><g id="shape-a0ff4895-d5eb-80bb-8006-5947a11ed5b9" rx="0" ry="0"><g id="shape-e387bb83-ae60-800e-8006-366ae6e63e33"><g class="fills" id="fills-e387bb83-ae60-800e-8006-366ae6e63e33"><path d="M22.00003433227539,12.659284591674805L22.00003433227539,4.664777755737305L18.26297378540039,4.664777755737305L18.26297378540039,3.346296548843384C18.26297378540039,2.978498697280884,18.13602066040039,2.662702798843384,17.88528823852539,2.402448892593384C17.64114761352539,2.135359048843384,17.34500503540039,1.9999829530715942,17.00003433227539,1.9999829530715942L3.2629730701446533,1.9999829530715942C2.9148285388946533,1.9999829530715942,2.6152679920196533,2.135359048843384,2.3645355701446533,2.402448892593384C2.1203949451446533,2.662702798843384,2.0000336170196533,2.978498697280884,2.0000336170196533,3.346296548843384L2.0000336170196533,7.329572677612305C2.0000336170196533,7.700910568237305,2.1203949451446533,8.020124435424805,2.3645355701446533,8.287336349487305C2.6152679920196533,8.547468185424805,2.9148285388946533,8.675886154174805,3.2629730701446533,8.675886154174805L17.00003433227539,8.675886154174805C17.34500503540039,8.675886154174805,17.64114761352539,8.547468185424805,17.88528823852539,8.287336349487305C18.13602066040039,8.020124435424805,18.26297378540039,7.700910568237305,18.26297378540039,7.329572677612305L18.26297378540039,6.011091232299805L20.76297378540039,6.011091232299805L20.76297378540039,11.340681076049805L9.500033378601074,11.340681076049805L9.500033378601074,14.005475997924805L8.875033378601074,14.005475997924805C8.699252128601074,14.005475997924805,8.552767753601074,14.071516036987305,8.432406425476074,14.199811935424805C8.318392753601074,14.331647872924805,8.262972831726074,14.487775802612305,8.262972831726074,14.671735763549805L8.262972831726074,21.333723068237305C8.262972831726074,21.517683029174805,8.318392753601074,21.673810958862305,8.432406425476074,21.805646896362305C8.552767753601074,21.934064865112305,8.699252128601074,21.999982833862305,8.875033378601074,21.999982833862305L11.375033378601074,21.999982833862305C11.547640800476074,21.999982833862305,11.693881034851074,21.934064865112305,11.817660331726074,21.805646896362305C11.938021659851074,21.673810958862305,12.000033378601074,21.517683029174805,12.000033378601074,21.333723068237305L12.000033378601074,14.671735763549805C12.000033378601074,14.487775802612305,11.938021659851074,14.331647872924805,11.817660331726074,14.199811935424805C11.694125175476074,14.071516036987305,11.547396659851074,14.005475997924805,11.375033378601074,14.005475997924805L10.762972831726074,14.005475997924805L10.762972831726074,12.659284591674805L22.00003433227539,12.659284591674805M17.00003433227539,4.664777755737305L3.2629730701446533,4.664777755737305L3.2629730701446533,3.346296548843384L17.00003433227539,3.346296548843384L17.00003433227539,4.664777755737305M22.00003433227539,3.346296548843384L22.00003433227539,19.335187911987305" style="fill-rule: nonzero; stroke: none; stroke-width: 0.352778; fill: rgb(0, 0, 0); fill-opacity: 1;"/></g></g></g></g></g></g></g></g></g></svg>

<svg fill="none" viewBox="0 0 24 24"><g class="frame-container-wrapper"><g class="frame-container-blur"><g class="frame-container-shadows"><g class="fills"><rect width="24" height="24" class="frame-background" rx="0" ry="0"/></g><g class="frame-children"><path fill="#000" d="M22 12.6593V4.6648h-3.737V3.3463c0-.3678-.127-.6836-.3777-.9439C17.641 2.1354 17.345 2 17 2H3.263c-.3482 0-.6477.1354-.8985.4024C2.1204 2.6627 2 2.9785 2 3.3463v3.9833c0 .3713.1204.6905.3645.9577.2508.2602.5503.3886.8985.3886H17c.345 0 .6411-.1284.8853-.3886.2507-.2672.3777-.5864.3777-.9577V6.011h2.5v5.3296H9.5v2.6648h-.625c-.1757 0-.3222.066-.4426.1943-.114.1318-.1694.288-.1694.472v6.662c0 .1839.0554.34.1694.4718.1204.1285.2669.1944.4426.1944h2.5c.1726 0 .3189-.066.4427-.1944.1203-.1318.1823-.288.1823-.4719v-6.662c0-.184-.062-.34-.1823-.4719-.1236-.1283-.2703-.1943-.4427-.1943h-.612v-1.3462H22m-5-7.9945H3.263V3.3463H17v1.3185m5-1.3185v15.9889" class="fills"/></g></g></g></g></svg>
